korla/actions/symbolic/view-filter-symbolic.svg

<svg style="clip-rule:evenodd;fill-rule:evenodd;stroke-linejoin:round;stroke-miterlimit:2" version="1.1" viewBox="0 0 16 16" xmlns="http://www.w3.org/2000/svg">
 <path d="m6.179 2v12h0.781v-12h-0.781zm-4.179 1v1h2v-1h-2zm7 0v2h2v-2h-2zm4 0v2h2v-2h-2zm-11 3v1h2v-1h-2zm7 1v2h2v-2h-2zm4 0v2h2v-2h-2zm-11 2v1h2v-1h-2zm7 2v2h2v-2h-2zm4 0v2h2v-2h-2zm-11 1v1h2v-1h-2z" style="fill-rule:nonzero;fill:rgb(223,223,223)"/>
</svg>

<svg xmlns="http://www.w3.org/2000/svg" width="16" height="16" version="1.1">
 <path style="fill:#dfdfdf" d="M 6,2 V 14 H 7 V 2 Z M 2,3 V 4 H 4 V 3 Z M 9,3 V 5 H 11 V 3 Z M 13,3 V 5 H 15 V 3 Z M 2,6 V 7 H 4 V 6 Z M 9,7 V 9 H 11 V 7 Z M 13,7 V 9 H 15 V 7 Z M 2,9 V 10 H 4 V 9 Z M 9,11 V 13 H 11 V 11 Z M 13,11 V 13 H 15 V 11 Z M 2,12 V 13 H 4 V 12 Z"/>
</svg>
